X: 18
T: Climbing the Golden Stairs
M:2/4
L:1/8
S:Viola "Mom" Ruth - Pioneer Western Folk Tunes (1948)
Z:AK/Fiddler's Companion
K:D
d/d/d/d/ f<a | d/e/d/d/ f<a | d/d/d/d/ fa | e3 (e/f/) | g/f/e/d/ c(e/f/) | g/f/e/d/ ce |
a/aa/ ge | d3(3A/B/c/ :: dfb>a | a g3 g/ | cea>^g | a3 (3A/B/c/ | dfb>a |
a g3 g/ | a/a/a/a/ ge |1 (d2d) (3A/B/c/:|2 (d2d) ||

%%sep 1 1 500
